public/images/icons/github.svg

<svg width="48" height="48" viewBox="0 0 48 48" fill="none" xmlns="http://www.w3.org/2000/svg">
<path opacity="0.3" d="M24 0.666748C17.8116 0.666748 11.8767 3.12507 7.50083 7.50096C3.12501 11.8768 0.666687 17.8117 0.666687 24.0001C0.666687 30.1885 3.12501 36.1234 7.50083 40.4993C11.8767 44.8751 17.8116 47.3335 24 47.3335C30.1884 47.3335 36.1233 44.8751 40.4991 40.4993C44.875 36.1234 47.3333 30.1885 47.3333 24.0001C47.3333 17.8117 44.875 11.8768 40.4991 7.50096C36.1233 3.12507 30.1884 0.666748 24 0.666748V0.666748Z" fill="url(#paint0_linear_25_573)"/>
<path d="M21.4334 0.900029C10.7 2.06669 2.06669 10.7001 0.900021 21.2001C-0.266649 32.1667 6.0334 41.9667 15.6 45.7001C16.3 45.9334 17 45.4667 17 44.5334V40.8001C17 40.8001 16.0667 41.0334 14.9 41.0334C11.6334 41.0334 10.2334 38.2334 10 36.6001C9.7667 35.6667 9.3 34.9667 8.6 34.2667C7.9 34.0334 7.6667 34.0334 7.6667 33.8001C7.6667 33.3334 8.3667 33.3334 8.6 33.3334C10 33.3334 11.1667 34.9667 11.6334 35.6667C12.8 37.5334 14.2 38.0001 14.9 38.0001C15.8334 38.0001 16.5334 37.7667 17 37.5334C17.2334 35.9001 17.9334 34.2667 19.3334 33.3334C13.9667 32.1667 10 29.1334 10 24.0001C10 21.4334 11.1667 18.8667 12.8 17.0001C12.5667 16.5334 12.3334 15.3667 12.3334 13.7334C12.3334 12.8001 12.3334 11.4001 13.0334 10.0001C13.0334 10.0001 16.3 10.0001 19.5667 13.0334C20.7334 12.5667 22.3667 12.3334 24 12.3334C25.6334 12.3334 27.2667 12.5667 28.6667 13.0334C31.7 10.0001 35.2 10.0001 35.2 10.0001C35.6667 11.4001 35.6667 12.8001 35.6667 13.7334C35.6667 15.6001 35.4334 16.5334 35.2 17.0001C36.8334 18.8667 38 21.2001 38 24.0001C38 29.1334 34.0334 32.1667 28.6667 33.3334C30.0667 34.5001 31 36.6001 31 38.7001V44.7667C31 45.4667 31.7 46.1667 32.6334 45.9334C41.2667 42.4334 47.3334 34.0334 47.3334 24.2334C47.3334 10.2334 35.4334 -0.733311 21.4334 0.900029V0.900029Z" fill="url(#paint1_linear_25_573)"/>
<defs>
<linearGradient id="paint0_linear_25_573" x1="0.666688" y1="24.0001" x2="38.01" y2="5.34095" gradientUnits="userSpaceOnUse">
<stop stop-color="#FFE7E0"/>
<stop offset="0.34375" stop-color="#F8DBF4"/>
<stop offset="0.6875" stop-color="#C4DDFF"/>
<stop offset="1" stop-color="#CAE9FF"/>
</linearGradient>
<linearGradient id="paint1_linear_25_573" x1="0.761232" y1="23.3588" x2="37.5894" y2="4.4154" gradientUnits="userSpaceOnUse">
<stop stop-color="#FFE7E0"/>
<stop offset="0.34375" stop-color="#F8DBF4"/>
<stop offset="0.6875" stop-color="#C4DDFF"/>
<stop offset="1" stop-color="#CAE9FF"/>
</linearGradient>
</defs>
</svg>

<svg viewBox="0 0 48 48" fill="none" xmlns="http://www.w3.org/2000/svg"><path opacity=".3" d="M24 .667a23.333 23.333 0 1 0 0 46.666A23.333 23.333 0 0 0 24 .667Z" fill="url(#a)"/><path d="M21.433.9C10.7 2.067 2.067 10.7.9 21.2-.267 32.167 6.033 41.967 15.6 45.7c.7.233 1.4-.233 1.4-1.167V40.8s-.933.233-2.1.233c-3.267 0-4.667-2.8-4.9-4.433-.233-.933-.7-1.633-1.4-2.333-.7-.234-.933-.234-.933-.467 0-.467.7-.467.933-.467 1.4 0 2.567 1.634 3.033 2.334C12.8 37.533 14.2 38 14.9 38c.933 0 1.633-.233 2.1-.467.233-1.633.933-3.266 2.333-4.2C13.967 32.167 10 29.133 10 24c0-2.567 1.167-5.133 2.8-7-.233-.467-.467-1.633-.467-3.267 0-.933 0-2.333.7-3.733 0 0 3.267 0 6.534 3.033 1.166-.466 2.8-.7 4.433-.7s3.267.234 4.667.7C31.7 10 35.2 10 35.2 10c.467 1.4.467 2.8.467 3.733 0 1.867-.234 2.8-.467 3.267 1.633 1.867 2.8 4.2 2.8 7 0 5.133-3.967 8.167-9.333 9.333C30.067 34.5 31 36.6 31 38.7v6.067c0 .7.7 1.4 1.633 1.166 8.634-3.5 14.7-11.9 14.7-21.7 0-14-11.9-24.966-25.9-23.333Z" fill="url(#b)"/><defs><linearGradient id="a" x1=".667" y1="24" x2="38.01" y2="5.341" gradientUnits="userSpaceOnUse"><stop stop-color="#FFE7E0"/><stop offset=".344" stop-color="#F8DBF4"/><stop offset=".688" stop-color="#C4DDFF"/><stop offset="1" stop-color="#CAE9FF"/></linearGradient><linearGradient id="b" x1=".761" y1="23.359" x2="37.589" y2="4.415" gradientUnits="userSpaceOnUse"><stop stop-color="#FFE7E0"/><stop offset=".344" stop-color="#F8DBF4"/><stop offset=".688" stop-color="#C4DDFF"/><stop offset="1" stop-color="#CAE9FF"/></linearGradient></defs></svg>
